X:136
T:Deans Hornpipe TS.136
M:C|
L:1/8
Q:1/2=90
S:Thomas Sands’ MS,1810,Lincolnshire
R:.hornpipe
N:Nine bars in B part may be error in ms.
O:England;Lincolnshire
Z:vmp.Ruairidh Greig, 2011
K:Bb
F2|B2 df edcB|cfAc BAGF|DFBd EGce|ecdB BAGF|
B2df edcB|ceAc BAGF|DFBd EGce|dcB”B2B2 in MS”AB2:|
|:”qu. in ms”f2|gedcE2g2|fedc D2f2|”^extraneous bar?”edcBD2f2|edcBC2e2|dBFDB,2FE|
DFBd EGce|dfdBg2gb|fdcB ecBA|B2B2″min. in ms”B2:|]

